X:1
T:He Is Risen
T:Joachim Neander, 1680
T:He Is Risen
T:Public Domain
T:Public Domain
C:Joachim Neander, 1680
Z:Public Domain
%%score ( 1 2 ) ( 3 4 )
L:1/8
M:4/4
K:C
V:1 treble 
V:2 treble 
V:3 bass 
V:4 bass 
V:1
 [G,C]3 [B,D] [CE]2 C2 | [CE]2 [CF]2 [DG]2 [DG]2 | [Cc]2 (BA) [DG]2 [Ge]2 | [Ad]2 [Gd]2 [Ec]4 | %4
w: 1.~Said the an- gel,|is ris- en!” Tell|it out * with joy-|voice: He has|
w: 2.~Come, ye sad and|ful heart- ed, With|glad smile * and ra-|brow! Death’s long|
w: 3.~Come, with high and|ly hymn- ing, Chant|our Lord’s * tri- umph-|day; Not one|
w: 4.~He is ris- en,|is ris- en! He|has o- * pened Heav-|gate: We are|
 [G,C]3 [B,D] [CE]2 C2 | [CE]2 [CF]2 [DG]2 [DG]2 | [Cc]2 (BA) [DG]2 [Ge]2 | [Ad]2 [Gd]2 [Ec]4 | %8
w: burst His three days’|son; Let the whole|wide earth * re- joice:|is con- quered,|
w: sha- dows have de-|ed; All our woes|are o- * ver now,|to pass- ion|
w: dark- some cloud is|ming Yon- der glor-|ious morn- * ing ray,|ing over the|
w: free from sin’s dark|son, Ris- en to|a ho- * lier state;|a bright- er|
 [Ge]3 [Ge] [Gd]2 (GF) | [Ec]2 [Ec]2 [EB]2 [EB]2 | (C3 B,) [CG]2 [Ec]2 | [Dd]2 [DB]2 [Ec]4 |] %12
w: we are free, Christ *|won the vic- to-|ry. * * *||
w: that He bore— Sin *|pain can vex no|more. * * *||
w: pur- ple east: Bright- *|far our Eas- ter|feast. * * *||
w: East- er beam On *|long- ing eyes shall|stream. * * *||
V:2
 x6 C2 | x8 | x2 C2 x4 | x8 | x6 C2 | x8 | x2 C2 x4 | x8 | x6 d2 | x8 | A4 x4 | x8 |] %12
w: “He||ful||pri-||Death||has||||
w: fear-||diant||part-||Due||and||||
w: ho-||ant||dim-||Break-||er||||
w: He||en’s||pri-||And||our||||
V:3
 [C,E,]3 [G,,G,] [C,G,]2 [E,G,]2 | [C,G,]2 [A,,C]2 [G,,C]2 [G,B,]2 | [A,C]2 (G,F,) [G,B,]2 [C,C]2 | %3
 [F,C]2 [G,B,]2 [C,C]4 | [C,E,]3 [G,,G,] [C,G,]2 [E,G,]2 | [C,G,]2 [A,,C]2 [G,,C]2 [G,B,]2 | %6
 [A,C]2 (G,F,) [G,B,]2 [C,C]2 | [F,C]2 [G,B,]2 [C,C]4 | [C,C]3 [E,C] [G,C]2 [G,B,]2 | %9
 [A,C]2 (C,D,) [E,A,]2 [E,^G,]2 | [F,A,]3 [D,F,] [E,G,]2 A,2 | [F,A,]2 G,2 [C,G,]4 |] %12
V:4
 x8 | x8 | x2 C2 x4 | x8 | x8 | x8 | x2 C2 x4 | x8 | x8 | x2 A,2 x4 | x6 A,2 | x2 G,2 x4 |] %12

